style/svgs/down_arrow.svg

<?xml version="1.0" encoding="UTF-8"?>
<svg width="100px" height="100px" viewBox="0 0 100 100" version="1.1" xmlns="http://www.w3.org/2000/svg" xmlns:xlink="http://www.w3.org/1999/xlink">
    <title>Artboard Copy 288</title>
    <g id="Artboard-Copy-288" stroke="none" stroke-width="1" fill="none" fill-rule="evenodd">
        <path d="M49.5,98 C50.0033557,98 50.4647651,97.9070119 50.8842282,97.7210358 C51.3036913,97.5350596 51.6812081,97.2560954 52.0167785,96.8841431 L85.9932886,62.6983449 C86.6644295,61.9544403 87,61.1260011 87,60.2130272 C87,59.2662395 86.6895973,58.4716142 86.0687919,57.8291511 C85.4479866,57.186688 84.6845638,56.8654565 83.7785235,56.8654565 C83.3087248,56.8654565 82.864094,56.9415376 82.4446309,57.0936999 C82.0251678,57.2458623 81.6644295,57.4741057 81.3624161,57.7784303 L66.0604027,73.0453817 L52.5958389,87.6663534 L52.8724832,76.8494394 L52.8724832,6.34757074 C52.8724832,5.36696921 52.5536913,4.56389037 51.9161074,3.93833422 C51.2785235,3.31277807 50.4731544,3 49.5,3 C48.5268456,3 47.7298658,3.31277807 47.1090604,3.93833422 C46.488255,4.56389037 46.1778523,5.36696921 46.1778523,6.34757074 L46.1778523,76.8494394 L46.4492617,87.7247838 L32.9395973,73.0453817 L17.6375839,57.7784303 C17.3691275,57.4741057 17.0167785,57.2458623 16.5805369,57.0936999 C16.1442953,56.9415376 15.7080537,56.8654565 15.2718121,56.8654565 C14.3322148,56.8654565 13.5520134,57.186688 12.9312081,57.8291511 C12.3104027,58.4716142 12,59.2662395 12,60.2130272 C12,61.1260011 12.352349,61.9544403 13.057047,62.6983449 L46.9832215,96.8841431 C47.352349,97.2560954 47.7466443,97.5350596 48.1661074,97.7210358 C48.5855705,97.9070119 49.0302013,98 49.5,98 Z" id="􀄩" stroke="#979797" fill="#3E3E3E" fill-rule="nonzero"></path>
    </g>
</svg>

<svg width="100" height="100" xmlns="http://www.w3.org/2000/svg"><path d="M49.5 98c.503 0 .965-.093 1.384-.279a3.35 3.35 0 0 0 1.133-.837l33.976-34.186c.671-.744 1.007-1.572 1.007-2.485 0-.947-.31-1.741-.931-2.384-.621-.642-1.384-.964-2.29-.964-.47 0-.915.077-1.334.229-.42.152-.78.38-1.083.684L66.06 73.045 52.596 87.666l.276-10.817V6.348c0-.981-.318-1.784-.956-2.41C51.28 3.313 50.473 3 49.5 3c-.973 0-1.77.313-2.39.938-.622.626-.932 1.429-.932 2.41v70.501l.271 10.876-13.51-14.68-15.301-15.267a2.453 2.453 0 0 0-1.057-.684 3.952 3.952 0 0 0-1.31-.229c-.939 0-1.719.322-2.34.964-.62.643-.931 1.437-.931 2.384 0 .913.352 1.741 1.057 2.485l33.926 34.186c.37.372.764.651 1.183.837.42.186.864.279 1.334.279Z" stroke="#979797" fill="#3E3E3E" fill-rule="nonzero"/></svg>
